icons/Office.svg

<svg width="24" height="24" viewBox="0 0 24 24" fill="none" xmlns="http://www.w3.org/2000/svg">
<path fill-rule="evenodd" clip-rule="evenodd" d="M13.3943,2.36201c0.2211,0.13666 0.3557,0.37806 0.3557,0.63799v3.59861l5.666,3.77739c0.2087,0.1391 0.334,0.3732 0.334,0.624v9.25h1.25c0.4142,0 0.75,0.3358 0.75,0.75c0,0.4142 -0.3358,0.75 -0.75,0.75h-2h-6h-8h-2c-0.41421,0 -0.75,-0.3358 -0.75,-0.75c0,-0.4142 0.33579,-0.75 0.75,-0.75h1.25v-13.25c0,-0.28408 0.1605,-0.54378 0.41459,-0.67082l8.00001,-4c0.2325,-0.11625 0.5086,-0.10382 0.7297,0.03283zM12.25,20.25v-13.25v-2.78647l-6.5,3.25v12.78647zM18.25,20.25v-8.8486l-4.5,-3.00001v11.84861zM6.75,9c0,-0.41421 0.33579,-0.75 0.75,-0.75h3c0.4142,0 0.75,0.33579 0.75,0.75c0,0.41421 -0.3358,0.75 -0.75,0.75h-3c-0.41421,0 -0.75,-0.33579 -0.75,-0.75zM10.5,11.25c0.4142,0 0.75,0.3358 0.75,0.75c0,0.4142 -0.3358,0.75 -0.75,0.75h-3c-0.41421,0 -0.75,-0.3358 -0.75,-0.75c0,-0.4142 0.33579,-0.75 0.75,-0.75zM6.75,18c0,-0.4142 0.33579,-0.75 0.75,-0.75h3c0.4142,0 0.75,0.3358 0.75,0.75c0,0.4142 -0.3358,0.75 -0.75,0.75h-3c-0.41421,0 -0.75,-0.3358 -0.75,-0.75zM10.5,14.25c0.4142,0 0.75,0.3358 0.75,0.75c0,0.4142 -0.3358,0.75 -0.75,0.75h-3c-0.41421,0 -0.75,-0.3358 -0.75,-0.75c0,-0.4142 0.33579,-0.75 0.75,-0.75z" fill="#2F3736"/>
</svg>

<svg width="24" height="24" viewBox="0 0 24 24" fill="none" xmlns="http://www.w3.org/2000/svg">
<path fill-rule="evenodd" clip-rule="evenodd" d="M13.3943 2.36201C13.6154 2.49867 13.75 2.74007 13.75 3V6.59861L19.416 10.376C19.6247 10.5151 19.75 10.7492 19.75 11V20.25H21C21.4142 20.25 21.75 20.5858 21.75 21C21.75 21.4142 21.4142 21.75 21 21.75H19H13H5H3C2.58579 21.75 2.25 21.4142 2.25 21C2.25 20.5858 2.58579 20.25 3 20.25H4.25V7C4.25 6.71592 4.4105 6.45622 4.66459 6.32918L12.6646 2.32918C12.8971 2.21293 13.1732 2.22536 13.3943 2.36201ZM12.25 20.25V7V4.21353L5.75 7.46353V20.25H12.25ZM18.25 20.25V11.4014L13.75 8.40139V20.25H18.25ZM6.75 9C6.75 8.58579 7.08579 8.25 7.5 8.25H10.5C10.9142 8.25 11.25 8.58579 11.25 9C11.25 9.41421 10.9142 9.75 10.5 9.75H7.5C7.08579 9.75 6.75 9.41421 6.75 9ZM7.5 11.25C7.08579 11.25 6.75 11.5858 6.75 12C6.75 12.4142 7.08579 12.75 7.5 12.75H10.5C10.9142 12.75 11.25 12.4142 11.25 12C11.25 11.5858 10.9142 11.25 10.5 11.25H7.5ZM6.75 18C6.75 17.5858 7.08579 17.25 7.5 17.25H10.5C10.9142 17.25 11.25 17.5858 11.25 18C11.25 18.4142 10.9142 18.75 10.5 18.75H7.5C7.08579 18.75 6.75 18.4142 6.75 18ZM7.5 14.25C7.08579 14.25 6.75 14.5858 6.75 15C6.75 15.4142 7.08579 15.75 7.5 15.75H10.5C10.9142 15.75 11.25 15.4142 11.25 15C11.25 14.5858 10.9142 14.25 10.5 14.25H7.5Z" fill="#2F3736"/>
</svg>
